icons/1_Primary/Cardmarket.svg

<svg width="1024" height="1024" viewBox="0 0 1024 1024" fill="none" xmlns="http://www.w3.org/2000/svg">
<g clip-path="url(#clip0_2_1776)">
<path d="M512 1024C794.77 1024 1024 794.77 1024 512C1024 229.23 794.77 0 512 0C229.23 0 0 229.23 0 512C0 794.77 229.23 1024 512 1024Z" fill="#54688C"/>
<path d="M337.24 416.57C345.573 454.924 354.826 497.194 365 543.38C375.173 589.567 384.76 632.17 393.76 671.19C402.426 710.524 406.93 731.19 407.27 733.19C408.627 737.351 410.385 741.37 412.52 745.19C415.313 750.158 419.37 754.298 424.28 757.19C430.613 761.524 436.033 763.94 440.54 764.44C445.046 764.94 447.796 765.19 448.79 765.19H478.3L427.3 784.19C422.3 785.19 418.13 785.19 414.79 784.19C411.79 782.857 408.79 780.19 405.79 776.19L267.7 398.56C266.685 394.262 266.858 389.768 268.2 385.56C269.866 382.227 273.033 379.227 277.7 376.56L324.7 359.56L337.24 416.57ZM404.77 291.51V619.67L341.74 322C341.74 316.667 342.74 312.497 344.74 309.49C347.073 305.824 351.073 302.824 356.74 300.49L404.77 291.51ZM460.3 734.73C456.948 734.726 453.632 734.046 450.55 732.73C447.462 731.464 444.656 729.598 442.292 727.242C439.929 724.885 438.055 722.084 436.78 719C435.429 715.75 434.749 712.26 434.78 708.74V534.63C434.717 530.484 435.834 526.406 438 522.87C439.984 519.569 442.971 516.987 446.526 515.503C450.081 514.019 454.017 513.71 457.76 514.62C461.843 515.668 465.509 517.935 468.27 521.12L531.8 584.65C534.614 587.589 536.165 591.512 536.121 595.581C536.076 599.649 534.441 603.538 531.564 606.415C528.687 609.291 524.798 610.927 520.73 610.971C516.662 611.015 512.738 609.464 509.8 606.65L465.28 561.65V704.21H609.87L595.36 690.21C592.752 687.958 590.699 685.135 589.36 681.96C588.044 678.878 587.364 675.562 587.36 672.21C587.329 668.714 587.922 665.239 589.11 661.95C590.295 658.757 592.274 655.918 594.86 653.7L729.43 517.62C730.86 516.16 732.573 515.008 734.465 514.234C736.357 513.461 738.386 513.081 740.43 513.12C744.47 513.017 748.4 514.446 751.43 517.12C754.312 520.056 755.928 524.006 755.928 528.12C755.928 532.235 754.312 536.185 751.43 539.12L619.87 671.69L650.87 701.2C653.965 704.137 656.211 707.854 657.37 711.96C658.379 715.714 658.024 719.703 656.37 723.22C655.072 726.844 652.493 729.867 649.12 731.72C645.534 733.743 641.476 734.778 637.36 734.72L460.3 734.73ZM555.85 561.4C552.933 560.283 550.227 558.676 547.85 556.65L471.3 483.1C468.987 480.797 467.122 478.084 465.8 475.1C464.469 472.111 463.787 468.873 463.8 465.6C463.785 462.352 464.378 459.13 465.55 456.1C466.72 453.095 468.508 450.369 470.8 448.1L586.86 331.53C587.526 331.197 587.86 330.78 587.86 330.28V328C587.86 327.667 587.526 327.167 586.86 326.5L560.35 301C556.016 297 553.85 293.247 553.85 289.74C553.85 286.234 554.183 283.817 554.85 282.49C555.183 281.157 556.6 279.24 559.1 276.74C561.6 274.24 565.683 272.994 571.35 273H731.93C735.228 272.932 738.506 273.539 741.56 274.786C744.615 276.033 747.382 277.893 749.69 280.25C752.013 282.48 753.855 285.161 755.102 288.13C756.349 291.098 756.974 294.291 756.94 297.51L756.44 455.09C756.459 457.184 756.292 459.276 755.94 461.34C755.655 463.059 754.97 464.686 753.94 466.09C752.725 468.305 750.904 470.126 748.69 471.34C746.622 472.481 744.301 473.083 741.94 473.09C739.904 473.031 737.885 472.695 735.94 472.09C733.606 471.424 731.106 469.757 728.44 467.09L701.93 441.58C701.495 441.037 700.869 440.679 700.18 440.58H698.93C698.467 440.567 698.006 440.65 697.576 440.822C697.146 440.993 696.756 441.252 696.43 441.58L582.86 556.14C580.527 558.473 577.711 560.265 574.61 561.39C571.49 562.549 568.188 563.141 564.86 563.14C561.77 563.127 558.71 562.533 555.84 561.39L555.85 561.4Z" fill="white"/>
</g>
<defs>
<clipPath id="clip0_2_1776">
<rect width="1024" height="1024" fill="white"/>
</clipPath>
</defs>
</svg>

<svg xmlns="http://www.w3.org/2000/svg" viewBox="0 0 1024 1024">
   <circle cx="512" cy="512" r="512" style="fill:#012169"/>
   <path d="M337.24 416.57q12.5 57.53 27.76 126.81t28.76 127.81q13 59 13.51 62a67.55 67.55 0 0 0 5.25 12 32.3 32.3 0 0 0 11.76 12q9.5 6.5 16.26 7.25t8.25.75h29.51l-51 19q-7.5 1.5-12.51 0-4.5-2-9-8L267.7 398.56a24.36 24.36 0 0 1 .5-13q2.5-5 9.5-9l47-17Zm67.53-125.06v328.16L341.74 322q0-8 3-12.51 3.5-5.5 12-9Zm55.53 443.22a24.91 24.91 0 0 1-9.75-2A25.29 25.29 0 0 1 436.78 719a26.15 26.15 0 0 1-2-10.26V534.63a21.88 21.88 0 0 1 3.22-11.76 18.07 18.07 0 0 1 19.76-8.25 20.72 20.72 0 0 1 10.51 6.5l63.53 63.53a15.56 15.56 0 0 1-22 22l-44.52-45v142.56h144.59l-14.51-14a22.42 22.42 0 0 1-6-8.25 24.91 24.91 0 0 1-2-9.75 29.44 29.44 0 0 1 1.75-10.26 20.07 20.07 0 0 1 5.75-8.25l134.57-136.08a15 15 0 0 1 11-4.5 16 16 0 0 1 11 4 15.7 15.7 0 0 1 0 22L619.87 671.69l31 29.51a23.71 23.71 0 0 1 6.5 10.76 16.43 16.43 0 0 1-1 11.26 15.76 15.76 0 0 1-7.25 8.5 23.27 23.27 0 0 1-11.76 3Zm95.55-173.33a27.51 27.51 0 0 1-8-4.75L471.3 483.1a26.38 26.38 0 0 1-5.5-8 23.14 23.14 0 0 1-2-9.5 26 26 0 0 1 1.75-9.5 23 23 0 0 1 5.25-8l116.06-116.57q1-.5 1-1.25V328q0-.5-1-1.5L560.35 301q-6.5-6-6.5-11.26t1-7.25q.5-2 4.25-5.75t12.25-3.74h160.58a24.15 24.15 0 0 1 17.76 7.25 23.57 23.57 0 0 1 7.25 17.26l-.5 157.58a35.19 35.19 0 0 1-.5 6.25 11.1 11.1 0 0 1-2 4.75 13.26 13.26 0 0 1-5.25 5.25 14.06 14.06 0 0 1-6.75 1.75 22.42 22.42 0 0 1-6-1q-3.5-1-7.5-5l-26.51-25.51a2.74 2.74 0 0 0-1.75-1h-1.25a3.39 3.39 0 0 0-2.5 1L582.86 556.14a22.54 22.54 0 0 1-8.25 5.25 28 28 0 0 1-9.75 1.75 24.69 24.69 0 0 1-9.02-1.75Z" style="fill:#fff"/>
</svg>
